resources/svg/float-left-o.svg

<svg xmlns="http://www.w3.org/2000/svg" viewBox="0 0 15 15" fill="none"><path d="M9 5.5H15M9 1.5H15M0 9.5H15M0 13.5H15M1.5 0.5H5.5C6.05228 0.5 6.5 0.947715 6.5 1.5V5.5C6.5 6.05228 6.05228 6.5 5.5 6.5H1.5C0.947715 6.5 0.5 6.05228 0.5 5.5V1.5C0.5 0.947715 0.947715 0.5 1.5 0.5Z" stroke="black"/></svg>

<svg xmlns="http://www.w3.org/2000/svg" viewBox="0 0 15 15" fill="none"><path d="M9 5.5h6m-6-4h6m-15 8h15m-15 4h15M1.5.5h4a1 1 0 011 1v4a1 1 0 01-1 1h-4a1 1 0 01-1-1v-4a1 1 0 011-1z" stroke="currentColor"/></svg>
